X: 15335
T: Gladstone, The
R: reel
M: 4/4
K: Amajor
|:cAdB efga|A/A/AcA BGEd|cAdB efga|ecdB A2A2:|
afba geag|fdgf ecfe|dBed cAdc|BAGA Bcde|
afba geag|fdgf ecfe|dBed ceaf|ecdB A2z2|

